X:1
T:James Gibb editions
T:O sacrum convivium - Viadana
T:#
%%score [ 1 2 3 4 ]
L:1/8
Q:1/4=200
M:none
K:Bb
V:1 treble nm="Soprano" snm="S"
V:2 treble nm="Alto" snm="A"
V:3 treble-8 nm="Tenor" snm="T"
V:4 bass nm="Bass" snm="B"
V:1
"^Ludovico da Viadana\n(1560-1627)""^O sacrum convivium" F16 | G16 | A8 B8 | (G8 F8- | F4) F4 F8 | %5
w: O|sa-|crum con-|vi\- *|* vi- um,|
 z16 | B12 B4 | G12 F4 | G8 G8 | G8 z4 A4 | B6 B2 B4 B4 | c12 c4 | =B8 z4 G4- | G4 A4 B4 c4 | B16 | %15
w: |in quo|Chri- stus|su- mi-|tur: re-|co- li- tur me-|mo- ri-|a pas\-|* si- o- nis|e-|
 B8 z8 | B4 G4 F4 G4 | F16 | F16 ||[M:3/2] F8 G4 | G8 B4 | B8 A4 | B12 | B8 A4 | G8 F4 | G8 G4 | %26
w: jus,|pas- si- o- nis|e-|jus:|mens im-|ple- tur|gra- ti-|a,|mens im-|ple- tur|gra- ti-|
[M:3/2] A4 B4 c4 | B8 A4 | c8 c4 || A4 F8 G4 | G4 F4 E4 D4 | z2 F4 F2 F4 F4 |[M:4/2] z8 z4 B4 | %33
w: a; et fu-|tu- rae|glo- ri-|ae no- bis|pi- gnus da- tur.|Al- le- lu- ia,|Al-|
 c4 G4 B4 z2 F2 | G4 A4 B8 | %35
w: le- lu- ia, Al-|le- lu- ia,|
 z4[Q:1/4=197] F4[Q:1/4=194] (G2[Q:1/4=192] A2[Q:1/4=189] B2[Q:1/4=187] G2 | %36
w: Al- le\- * * *|
[Q:1/4=184] A4)[Q:1/4=179] (B6[Q:1/4=175] A[Q:1/4=174]G[Q:1/4=171] A4) |[Q:1/4=170] B16 |] %38
w: * lu\- * * *|ia.|
V:2
 D16- | D16 | F16 | E12 D4 | C4 C4 D8 | z8 G8- | G4 G4 F8 | E8 (C8 | D12) D4 | =E8 z4 F4 | %10
w: O||sa-|crum con-|vi- vi- um,|in|* quo Chri-|stus su\-|* mi-|tur: re-|
 F6 F2 F4 G4 | (_A2 G2 G8) F4 | G8 (G6 F2 | E4 C4 G4 F4- | F4 (E8 D4) | E4 B,8 C4 | D4 E4 F4 E4 | %17
w: co- li- tur me-|mo * * ri-|a pas\- *|* si- o- nis|* e\- *|jus, pas- si-|o- nis, pas- si-|
 E4 D4 C8 | D16 ||[M:3/2] D8 D4 | E8 F4 | G8 E4 | F12 | F8 F4 | D8 D4 | B,4 E4) D4 | %26
w: o- nis e-|jus:|mens im-|ple- tur|gra- ti-|a,|mens im-|ple- tur|gra\- * ti-|
[M:3/2] F4 F4 F4 | F8 F4 | G8 G4 || F8 z8 | z4 D4 E4 F2 D2 | C8 B,8 |[M:4/2] z16 | %33
w: a; et fu-|tu- rae|glo- ri-|ae|no- bis pi- gnus|da- tur.||
 z4 C4 (D2 E2 F2 D2 | E4 F4) D8 | C4 (B,6 C2 D2 E2 | F4) F4 F8 | F16 |] %38
w: Al- le\- * * *|* * lu-|ìa, Al\- * * *|* le- lu-|ia.|
V:3
 z16 | B16 | c8 d8 | B4 (c6 B2 B4- | B4) A4 B8 | z4 B8 B4 | e8 d8 | z8 z4 (c4- | c4 =B2 A2 B4) B4 | %9
w: |O|sa- crum|con- vi\- * *|* vi- um,|in quo|Chri- stus|su\-|* * * * mi-|
 c8 z4 c4 | d6 d2 d4 d4 | (e6 d2 c4) c4 | d8 e4 e4 | B4 f4 d4 c4 | d4 g4 f8 | (g6 fe d4) f4- | %16
w: tur: re-|co- li- tur me-|mo * * ri-|a pas- si-|o- nis, pas- si-|o- nis e-|jus, * * * pas\-|
 f4 e4 d4 (c4- | c2 B2) (B8 A4) | B16 ||[M:3/2][K:treble-8] B8 G4 | c8 B4 | e8 c4 | B12 | d8 c4 | %24
w: * si- o- nis|* * e\- *|jus:|mens im-|ple- tur|gra- ti-|a,|mens im-|
 B8 A4 | (G4 B4) B4 |[M:3/2][K:treble-8] c4 d4 c4 | d8 d4 | =e8 e4 || f4 (d6 c2 B2 A2 | %30
w: ple- tur|gra\- * ti-|a; et fu-|tu- rae|glo- ri-|ae no\- * * *|
 B2 AG A2 B2 c4) F2 B2- | B2 B2 A4 B4 d4 |[M:4/2][K:treble-8] (e2 f2 g2 e2 f4 g4) | e4 c4 z8 | %34
w: * * * * * * bis pi\-|* gnus da- tur. Al-|le\- * * * * *|lu- ia,|
 z4 c4 (B2 c2 d2 B2 | c4 d4 B6 AB | c4 d4) c8 | d16 |] %38
w: Al- le\- * * *||* * lu-|ia.|
V:4
 B,16 | G,16 | F,8 D,8 | (E,8 F,8- | F,4) F,4 B,,8 | z8 E,8- | E,4 E,4 B,8 | C8 (_A,8 | G,12) G,4 | %9
w: O|sa-|crum con-|vi\- *|* vi- um|in|* quo Chri-|stus su\-|* mi-|
 C,8 z4 F,4 | B,6 B,2 B,4 G,4 | (C6 B,2 _A,4) A,4 | G,8 E,8- | E,4 F,4 G,4 _A,4 | B,16 | %15
w: tur: re-|co- li- tur me-|mo\- * * ri-|a pas\-|* si- o- nis|e-|
 E,8 B,,8- | B,,4 C,4 D,4 E,4 | F,16 | B,16 ||[M:3/2] z12 | z12 | z12 | z12 | B,8 F,4 | G,8 D,4 | %25
w: jus: pas\-|* si- o- nis|e-|jus:|||||mens im-|ple- tur|
 E,8 G,4 |[M:3/2] F,4 B,4 A,4 | B,8 D4 | C8 C4 || F,4 (B,6 A,2 G,2 F,2 | E,4) D,4 C,4 B,,4 | %31
w: gra- ti-|a; et fu-|tu- rae|glo- ri-|ae no\- * * *|* bis pi- gnus|
 F,8 B,,4 B,4 |[M:4/2] (C2 D2 E2 C2 D4 E4) | C8 B,8 | z4 F,4 (G,2 A,2 B,2 G,2 | A,4 B,4 G,8) | %36
w: da- tur. Al-|le\- * * * * *|lu- ia,|Al- le\- * * *||
 F,16 | B,16 |] %38
w: lu-|ia.|

